X: 817
T: Red River Waltz
C:The Stripling Brothers
B: jims roots
M:3/4
L:1/8
R: Waltz
Q: 1/4=100
K:C
V:1 
g^f (3e=f^f |:"C"g4^f2 | g4 a2 | g3 ag2 | [e3g3] ([_e_g] y[=e=g])[dg] | [c3e3] ([_e_g] y[=e=g])[dg] |
"G"G6- | G3 g (3ef^f | "C"g4 ^f2 | g4 a2 | g3 ag2 | [e3g3] ([_e_g] y[=e=g])[dg] |
"G"a3g e2 | G2^F2G2 | [A3A3] _A [=AA] | B3 ([_e_g] y[=e=g])[dg] | "C"([c6e6] | [c3e3]) e f^f:|
V:c3e3 
E AE | G6- | G3 G_A2 | "F"[A3A3] _A [=AA]B | c3 B/A/ Bc | d3 d/B/ c/BA/ |
V:e3c3 
([_e_g] y[=e=g])[dg] | [c3e3] E AE | G6- | G3G _A2 | "F"[A3A3] _A [=AA]B | c2 (3cg^f e=f^fg |
% abcbook-tune_id 6298c27982a83f6d3de47e44


% abcbook-boost 0
% abcbook-tablature 
% abcbook-transpose 
% abcbook-lastupdated 1654178426823
% abcbook-soundfonts 
% abcbook-repeats 1


